build/img/partner-logo-3.svg

<svg width="126" height="34" viewBox="0 0 126 34" fill="none" xmlns="http://www.w3.org/2000/svg">
<g clip-path="url(#clip0_465_1151)">
<path d="M115.457 19.8352C112.455 19.8352 109.452 19.8183 106.451 19.8436C105.21 19.8539 104.995 20.1724 105.558 21.2564C107.216 24.452 110.56 26.5065 114.988 25.4853C116.905 25.0431 118.682 24.3058 120.326 23.2153C121.408 22.4977 121.606 22.5961 122.137 23.8542C122.648 25.0618 123.118 26.2863 123.65 27.4836C124.031 28.338 123.845 28.9685 123.127 29.554C121.509 30.875 119.662 31.75 117.667 32.2812C113.439 33.4073 109.266 33.4682 105.175 31.6001C101.529 29.9353 99.2115 27.106 98.1032 23.3802C96.6895 18.6276 96.8141 13.8384 98.581 9.16351C100.4 4.34998 105.216 0.961398 110.384 0.795576C112.547 0.726249 114.7 0.729996 116.797 1.40828C120.967 2.75734 123.394 5.75338 124.704 9.76591C125.606 12.5306 125.938 15.402 125.995 18.2997C126.022 19.6909 125.862 19.837 124.462 19.8455C121.46 19.8642 118.458 19.8511 115.456 19.8511V19.8352H115.457ZM111.874 12.8079C113.504 12.8079 115.135 12.8313 116.765 12.8004C117.941 12.7779 118.035 12.5914 117.566 11.4719C117.465 11.2311 117.351 10.9941 117.219 10.7693C115.882 8.5021 113.72 7.87909 111.295 7.94467C108.691 8.01494 107.064 9.57104 105.966 11.7708C105.588 12.5296 105.764 12.7816 106.669 12.7976C108.404 12.8275 110.14 12.806 111.875 12.8088L111.874 12.8079Z" fill="black"/>
<path d="M85.2949 16.025C85.2949 15.5182 85.2949 15.0123 85.2949 14.5054C85.2949 10.6709 85.2893 6.83544 85.3005 3.00092C85.3052 1.3708 85.3614 1.33333 86.9934 1.33707C88.5205 1.34082 90.0476 1.32677 91.5746 1.34738C93.0801 1.36705 93.1532 1.43825 93.157 2.98874C93.1673 6.92913 93.1579 10.8686 93.1579 14.809C93.1579 20.0628 93.1607 25.3157 93.1579 30.5696C93.1579 32.4864 93.0998 32.4573 91.2598 32.6091C89.7946 32.73 88.7978 32.1753 87.8319 31.1279C83.84 26.8053 79.7825 22.5436 75.7475 18.2613C75.4589 17.9549 75.1554 17.6635 74.8575 17.3656C74.3947 16.9038 74.1146 17.0593 74.0452 17.6457C73.99 18.1132 74.0078 18.5892 74.0068 19.0623C74.0059 22.9502 74.0134 26.8372 74.0068 30.7251C74.004 32.4452 73.8663 32.5763 72.0957 32.5894C70.5686 32.6007 69.0406 32.6119 67.5145 32.5744C66.3987 32.5463 66.2488 32.3824 66.1345 31.3022C66.0905 30.8853 66.0998 30.4628 66.0998 30.0431C66.0979 21.3229 66.0961 12.6017 66.0998 3.88156C66.1008 1.33707 66.112 1.41858 68.5872 1.30897C70.1442 1.23964 71.2234 1.74741 72.284 2.89412C76.245 7.17645 80.3128 11.3604 84.3421 15.58C84.5201 15.7664 84.7206 15.9322 84.9108 16.1074C85.0373 16.0803 85.1647 16.054 85.2912 16.0269L85.2949 16.025Z" fill="black"/>
<path d="M62.6336 17.0154C62.6495 21.8692 61.2087 26.1159 57.4997 29.4155C53.9987 32.5296 49.8381 33.7025 45.2316 33.2903C40.8378 32.8969 37.1766 31.0175 34.4026 27.5456C32.6254 25.3205 31.6014 22.7807 31.2126 19.9599C30.7601 16.6809 30.9578 13.4666 32.0642 10.3385C34.5609 3.28398 41.8815 -0.364115 48.8085 0.567113C56.0195 1.53582 61.0204 6.46083 62.4106 13.7214C62.6158 14.7941 62.5662 15.9165 62.6346 17.0154H62.6336ZM46.7212 8.12374C43.7449 8.09657 40.7404 9.63769 39.3782 12.4454C38.624 14.0015 38.4713 15.6523 38.4657 17.3526C38.4526 21.2087 40.5296 24.6395 44.9075 25.4901C48.1134 26.1131 51.0298 25.4555 53.2379 22.9213C54.8727 21.0457 55.3618 18.7073 55.1482 16.2837C54.7013 11.1947 51.7034 8.15372 46.7193 8.1228L46.7212 8.12374Z" fill="black"/>
<path d="M24.59 32.5856C21.7785 33.2536 20.0509 31.9636 18.7037 29.6008C17.6938 27.8302 16.3766 26.2319 15.184 24.5662C14.2949 23.3239 14.1994 23.3146 13.3215 24.51C11.6736 26.7537 10.022 28.9966 8.42837 31.2787C7.76134 32.2334 6.98094 32.6878 5.78739 32.6072C4.37181 32.5116 2.94593 32.5678 1.52473 32.5585C0.0950974 32.5491 -0.314306 31.9064 0.480142 30.6866C1.99878 28.3539 3.60735 26.0792 5.18781 23.7867C6.46942 21.9262 7.7426 20.06 9.06168 18.2256C9.63222 17.4321 9.63503 16.7969 9.057 15.9603C6.31203 11.9834 3.62889 7.9643 0.942009 3.94709C0.518553 3.31378 -0.21781 2.66923 0.236562 1.83356C0.704049 0.975402 1.65683 1.38949 2.39881 1.3567C3.76567 1.29674 5.1419 1.40167 6.50502 1.3033C7.5215 1.23023 8.17074 1.54032 8.73941 2.39379C10.1653 4.53637 11.6774 6.62179 13.1595 8.72783C13.4311 9.11475 13.6813 9.53165 14.0232 9.84643C14.1694 9.98133 14.6397 10.0066 14.7624 9.8839C15.1653 9.47825 15.4903 8.99202 15.8201 8.51891C17.2348 6.49626 18.6616 4.48016 20.0406 2.43314C20.5596 1.66211 21.1761 1.28831 22.1317 1.3211C23.8152 1.37825 25.5034 1.30986 27.1878 1.35295C28.3093 1.38199 28.5997 1.85136 28.149 2.86971C27.9186 3.39154 27.5691 3.86558 27.2469 4.34338C24.8364 7.91558 22.4146 11.4794 20.005 15.0525C18.9089 16.6789 18.9258 16.6807 19.9891 18.2303C22.6348 22.0864 25.2748 25.9462 27.9148 29.806C28.1228 30.1095 28.3449 30.4084 28.5107 30.7344C29.1037 31.9027 28.7411 32.5135 27.4352 32.5819C27.3302 32.5875 27.2244 32.5847 27.1195 32.5847C26.2763 32.5847 25.4341 32.5847 24.5909 32.5847L24.59 32.5856Z" fill="black"/>
</g>
<defs>
<clipPath id="clip0_465_1151">
<rect width="125.92" height="32.9462" fill="white" transform="translate(0.0800781 0.423828)"/>
</clipPath>
</defs>
</svg>

<svg width="126" height="34" viewBox="0 0 126 34" fill="none" xmlns="http://www.w3.org/2000/svg"><g clip-path="url(#clip0_465_1151)" fill="#000"><path d="M115.457 19.835c-3.002 0-6.005-.017-9.006.009-1.241.01-1.456.328-.893 1.412 1.658 3.196 5.002 5.25 9.43 4.23 1.917-.443 3.694-1.18 5.338-2.27 1.082-.718 1.28-.62 1.811.638.511 1.208.981 2.432 1.513 3.63.381.854.195 1.484-.523 2.07-1.618 1.321-3.465 2.196-5.46 2.727-4.228 1.126-8.401 1.187-12.492-.68-3.646-1.666-5.963-4.495-7.072-8.22-1.413-4.753-1.289-9.543.478-14.217C100.4 4.35 105.216.96 110.384.796c2.163-.07 4.316-.066 6.413.612 4.17 1.35 6.597 4.345 7.907 8.358.902 2.765 1.234 5.636 1.291 8.534.027 1.39-.133 1.537-1.533 1.546-3.002.018-6.004.005-9.006.005v-.016h.001zm-3.583-7.027c1.63 0 3.261.023 4.891-.008 1.176-.022 1.27-.209.801-1.328a5.875 5.875 0 00-.347-.703c-1.337-2.267-3.499-2.89-5.924-2.824-2.604.07-4.231 1.626-5.329 3.826-.378.759-.202 1.01.703 1.027 1.735.03 3.471.008 5.206.01h-.001zm-26.579 3.217v-1.52c0-3.834-.006-7.67.005-11.504.005-1.63.061-1.668 1.693-1.664 1.528.004 3.055-.01 4.582.01 1.505.02 1.578.091 1.582 1.642.01 3.94 0 7.88 0 11.82 0 5.254.004 10.507 0 15.76 0 1.917-.057 1.888-1.897 2.04-1.465.121-2.462-.434-3.428-1.481-3.992-4.323-8.05-8.584-12.084-12.867-.29-.306-.593-.598-.89-.895-.463-.462-.743-.307-.813.28-.055.467-.037.943-.038 1.416-.001 3.888.006 7.775 0 11.663-.003 1.72-.14 1.851-1.911 1.864-1.527.012-3.055.023-4.582-.015-1.115-.028-1.265-.192-1.38-1.272-.043-.417-.034-.84-.034-1.259-.002-8.72-.004-17.441 0-26.161 0-2.545.012-2.463 2.487-2.573 1.557-.07 2.636.438 3.697 1.585 3.961 4.282 8.029 8.466 12.058 12.686.178.186.379.352.569.527l.38-.08.004-.002zm-22.661.99c.016 4.854-1.425 9.1-5.134 12.4-3.501 3.115-7.662 4.288-12.268 3.875-4.394-.393-8.055-2.273-10.83-5.744-1.777-2.226-2.8-4.765-3.19-7.586-.452-3.28-.254-6.493.852-9.622C34.561 3.284 41.882-.364 48.81.569c7.21.968 12.211 5.893 13.602 13.153.205 1.073.155 2.195.224 3.294h-.001zM46.72 8.124c-2.976-.027-5.98 1.514-7.343 4.321-.754 1.556-.907 3.207-.912 4.908-.013 3.856 2.064 7.287 6.441 8.137 3.206.623 6.123-.034 8.33-2.569 1.636-1.875 2.125-4.214 1.911-6.637-.447-5.09-3.445-8.13-8.429-8.161h.002zM24.59 32.586c-2.811.668-4.54-.622-5.886-2.985-1.01-1.77-2.327-3.37-3.52-5.035-.89-1.242-.985-1.251-1.862-.056-1.648 2.244-3.3 4.487-4.894 6.769-.667.954-1.447 1.409-2.64 1.328-1.416-.095-2.842-.04-4.263-.048-1.43-.01-1.84-.653-1.045-1.872 1.519-2.333 3.127-4.608 4.708-6.9 1.281-1.86 2.555-3.727 3.874-5.561.57-.794.573-1.43-.005-2.266C6.312 11.983 3.629 7.964.942 3.947.519 3.314-.218 2.67.237 1.834c.467-.859 1.42-.445 2.162-.477 1.367-.06 2.743.045 4.106-.054 1.016-.073 1.666.237 2.234 1.09 1.426 2.143 2.938 4.229 4.42 6.335.272.387.522.804.864 1.118.146.135.617.16.74.038.402-.406.727-.892 1.057-1.365 1.415-2.023 2.842-4.039 4.22-6.086.52-.77 1.136-1.145 2.092-1.112 1.683.057 3.371-.011 5.056.032 1.121.029 1.412.498.961 1.517-.23.522-.58.996-.902 1.473-2.41 3.573-4.832 7.136-7.242 10.71-1.096 1.626-1.08 1.628-.016 3.177 2.646 3.856 5.286 7.716 7.926 11.576.208.303.43.602.596.928.593 1.169.23 1.78-1.076 1.848-.105.005-.21.003-.316.003H24.59z"/></g><defs><clipPath id="clip0_465_1151"><path fill="#fff" transform="translate(.08 .424)" d="M0 0h125.92v32.946H0z"/></clipPath></defs></svg>
